!! 00000] TT[WS
!!!OTL: Sheokuren zaiwai shui xinteng
!!!ARE: Asia, China,ÿShanxi Hequ
!! Ethnic Group: Han
!! WI, 29 (2)
!!!SCT: J0031
!!!YEM: Copyright 1995, estate of Helmut Schaffrath.
**kern
*ICvox
*Ivox
*M2/4
*k[b-e-]
*B-:
{8ddd
4ddd
16ddd
16ccc
=1
16bb-
16gg
4fff
8ddd
=2
8ccc
16bb-
16gg
8bb-
16ddd
16fff
=3
2bb-}
=4
{8bb-
4ddd
16ddd
16ccc
=5
16bb-
16gg
4fff
16ddd
16ddd
=6
8ccc
16bb-
16gg
8bb-
16ddd
16fff
=7
8bb-
16bb-
16gg
4ff}
==
!!!AGN: Shange, Shanqu. Qingge
!!!ONB: ESAC (Essen Associative Code) Database: CHINA
!!!AMT: simple duple
!!!AIN: vox
!!!EED: Helmut Schaffrath
!!!EEV: 1.0
*-
